X:1
T:[ID 4-22v]
T:[ID 4-22v]
T:Bezeichnung standardisiert: Polonaise Polonoise
T:Urheber unbekannt Datum in der hier transkribierten schriftlichen Quelle: 1767
C:Urheber unbekannt
C:Datum in der hier transkribierten schriftlichen Quelle: 1767
L:1/8
M:3/4
K:D
V:1 treble 
V:1
 d'2 a2 g/f/e/d/ | ba d'2 g/f/e/d/ | ba d'2 g/f/e/d/ | bG/b/ aF/a/ gE/g/ | fD/F/ Ad/f/ ad' | %5
 e'c'/a/ ec/A/ Eg | fD/F/ Ad/f/ ad' | e'c'/a/ ec/A/ Eg | fg/a/ g2 f2 | e/d/c/B/ AA Ag | %10
 fg/a/ g2 f2 | f/d/e e4 :: a2 e2 d/c/B/A/ | fe a2 d/c/B/A/ | fe a2 d/c/B/A/ | dB/d/ EdBd | %16
 cA/c/ Eece | dB/d/ Eece | c/e/c/A/ B2 ^G2 | AB/^G/ A4 | dA/F/ D=c B2 | ed/=c/ Ed ^c2 | a2 g2 f2 | %23
 e/d/c/B/ AA A2 | d'a/f/ df e2 | d'a/f/ df e2 | f/a/f/d/ e2 c2 | de/c/ d4 :| %28

